!!!!SEGMENT: pl-sa--l-1636--042_anonim--preambulum.krn
!!!cenid: 17xx:749
!!!COM: Anonim
!!!COM-rismID:
!!!CDT:
!!!CNT:
!!!OTL: Preambulum
!!!PDT:
!!!AGN: Secular; Prelude
!!!SMS-siglum: PL-SA
!!!SMS-shelfmark: L 1636
!!!SMS-shelfwork: 042 W
!!!SMS-variant:
!!!SMS-altvar:
!!!NIFC-rismSourceID: 1001076523
!!!NIFC-islandoraID:
!!!URL-pdf-islandora:
!!!URL-scan:
!!!ONB-nifc: 12r, skan 0015, s. 6-8
!!!AIN: 2 empty
!!!key:
**kern	**kern
*group1	*group1
*part2	*part1
*staff2	*staff1
*Iempty	*Iempty
*I"	*I"
*clefF4	*clefG2
*k[b-]	*k[b-]
*F:	*F:
*M2/2	*M2/2
*met(c|)	*met(c|)
=1	=1
*^	*^
*2\right	*2\right	*2\right	*2\right
!	!	!LO:TX:a:t=Perambulum	!
2C/ 2F	2FF\	2a/	2f\
!	!	!	!LO:TX:a:t=P:problem=4\right&colon; global
4G/	2C\	4g/	4e\
[4F/	.	4a/	4f\
=2	=2	=2	=2
!	!LO:TX:a:t=P:problem=4\right&colon; global	!	!
4F/]	4BB-\	4f/	4d\
4E/	4GG\	4g/	4e\
!	!	!LO:TX:a:t=P:problem=8\right&colon; global	!
2F/	4FF\	8a/L	8f\L
.	.	8cc/	8a\
.	4BB-\	8b-/	8g\
.	.	8a/J	8f\J
*v	*v	*	*
=3	=3	=3
!LO:TX:a:t=P:problem=mixed beam	!LO:TX:a:t=P:problem=8\right&colon; global	!
8C/L	4g/	4e\
8c\	.	.
8B-\	4a/	4f\
8A\J	.	.
4G\	8r	8r
.	8b-/L	8g\L
4A\	8a/	8f\
.	8g/J	8e\J
=4	=4	=4
8r	4f/	4d\
8B-\L	.	.
8A\	4g/	4e\
8G\J	.	.
4F\	8a/L	8f\L
.	8aa/	8ff\
4G\	8gg/	8ee\
.	8ff/J	8dd\J
=5	=5	=5
8r	4ee/	4cc\
8A\L	.	.
8G\	4ff/	4dd\
8F\J	.	.
4E\	8r	8r
.	8gg/L	8ee\L
4F\	8ff/	8dd\
.	8ee/J	8cc\J
=6	=6	=6
8r	4dd/	4bn\
8G\L	.	.
8F\	4ee/	4cc\
8E\J	.	.
4D\	8r	8r
.	8ff/L	8dd\L
4E\	8ee/	8cc\
.	8dd/J	8b\J
!!LO:LB:g=original
=7	=7	=7
8r	4cc/	4a\
8F\L	.	.
8E-X\	4dd/	4b-\
8D\J	.	.
4C\	8r	8r
.	8ee-X/L	8cc\L
4D\	8dd/	8b-\
.	8cc/J	8a\J
=8	=8	=8
8r	4b-/	4g\
8E-X\L	.	.
8D\	4cc/	4a\
8C\J	.	.
4BB-/	8r	8r
.	8dd/L	8b-\L
4C/	8cc/	8a\
.	8b-/J	8g\J
=9	=9	=9
8r	4a/	4f\
8D/L	.	.
8C/	4b-/	4g\
8BB-/J	.	.
4AA/	8r	8r
.	8cc/L	8a\L
4BB-/	8b-/	8g\
.	8a/J	8f\J
=10	=10	=10
8r	4g/	4e\
8C/L	.	.
8BB-/	4a/	4f\
8AA/J	.	.
4GG/	8r	8r
.	8b-/L	8g\L
4AA/	8a/	8f\
.	8g/J	8e\J
=11	=11	=11
4BB-/	8f/L	8d\L
.	8g/J	8e\J
4AA/	4a/	4f\
4BB-/	2g/	4f\
4C/	.	4e\
=12	=12	=12
4FF/ 4F	8a/L	8f\L
.	8cc/	8a\
4BB-/	8b-/	8g\
.	8a/J	8f\J
!LO:TX:a:t=P:problem=mixed beam	!	!
8C\L	4g/	4e\
8c\	.	.
8B-\	4a/	4f\
8A\J	.	.
=13	=13	=13
4G\	8r	8r
.	8b-/L	8g\L
4A\	8a/	8f\
.	8g/J	8e\J
!!LO:LB:g=original
8r	4f/	4d\
8B-\L	.	.
8A\	4g/	4e\
8G\J	.	.
=14	=14	=14
4F\	8r	8r
.	8a/L	8f\L
4G\	8g/	8e\
.	8f/J	8d\J
4A\	4e/	4c#X\
4F\	4f/	4d\
=15	=15	=15
4G\	2e/	4d\
4A\	.	4c#X\
4D\	8d/L	8ryy
.	8ff/	8dd\L
4E-X\	8ee-X/	8cc\
.	8dd/J	8b-\J
=16	=16	=16
4F\	4cc/	4a\
4D\	4dd/	4b-\
4E-X\	2cc/	4b-\
4F\	.	4a\
=17	=17	=17
4BB-/	8b-\	8ryy
.	8dd/L	8b-\L
4C/	8cc/	8a\
.	8b-/J	8g\J
4D/	4a/	4f#X\
4BB-/	4b-/	4g\
=18	=18	=18
4C/	2a/	4g\
4D/	.	4f#X\
4GG/	4b-/	4g\
!	!LO:SIC:s=4fn:v	!
8AA/L	4a/	4f#\
8BB-/J	.	.
=19	=19	=19
2.C/	2g/	2e\
.	2a/	2f\
4BB-/	.	.
=20	=20	=20
!LO:TX:a:t=P:problem=brak kreski taktowej	!	!
1CC 1C	1g	4f\
.	.	8e\L
.	.	8d\J
.	.	2e\
*	*v	*v
!LO:TX:a:t=P:problem=brak kreski taktowej	!LO:TX:a:t=P:problem=brak kreski taktowej
=21-zz	=21-zz
1FF 1C 1F	1c 1f 1a
==	==
*-	*-
!!!system-decoration: [(g1)]
!!!ENC: Anna Matuszewska
!!!END: 2020-12-08
!!!ENC: Andrzej Borzym
!!!END: 2020-06-11
